X: 060449
T: Fall River Jig 
N: 089
C: BB
M: 6/8
Q: 1/8=320
L: 1/8
R: jig
K: G
D|"G"GDG "C"EFG | "Am"AcB ABc | "G"d2B "Am"cBA | "G"GAG "D"FED |
"G"GDG "C"EFG | "Am"AcB ABc | "G"dgd "Am"ecA | "D"AGF "G"G2 :|
e|"G"gfg "Em"edB | "G"BAB GAB | "G"gfg "C"efg | "Am"ea^g "D"a2 a |
"G"bag "D7"agf | "C"gfg "Em"edB | "G"GBd "Am"cBA |"D"AGF "G"G2 :|
